icons/svg/seamark/beacon_blackyellowblack_tower.svg

<?xml version="1.0" encoding="UTF-8" standalone="no"?>
<svg
   xmlns:dc="http://purl.org/dc/elements/1.1/"
   xmlns:cc="http://creativecommons.org/ns#"
   xmlns:rdf="http://www.w3.org/1999/02/22-rdf-syntax-ns#"
   xmlns:svg="http://www.w3.org/2000/svg"
   xmlns="http://www.w3.org/2000/svg"
   xmlns:sodipodi="http://sodipodi.sourceforge.net/DTD/sodipodi-0.dtd"
   xmlns:inkscape="http://www.inkscape.org/namespaces/inkscape"
   width="580"
   height="580"
   id="svg2"
   version="1.1"
   inkscape:version="0.48.4 r9939"
   sodipodi:docname="beacon_blackyellowblack_tower.svg">
  <defs
     id="defs13">
    <inkscape:path-effect
       effect="gears"
       id="path-effect3774"
       is_visible="true"
       teeth="6"
       phi="-1.2" />
    <inkscape:path-effect
       effect="bend_path"
       id="path-effect3772"
       is_visible="false"
       bendpath="m 95.790098,316.51174 c 144.429032,-206.42506 223.313032,-11.7428 339.548092,0"
       prop_scale="1.19"
       scale_y_rel="false"
       vertical="false"
       bendpath-nodetypes="cc" />
  </defs>
  <sodipodi:namedview
     pagecolor="#ffffff"
     bordercolor="#666666"
     borderopacity="1"
     objecttolerance="10"
     gridtolerance="10"
     guidetolerance="10"
     inkscape:pageopacity="0"
     inkscape:pageshadow="2"
     inkscape:window-width="1920"
     inkscape:window-height="1004"
     id="namedview11"
     showgrid="false"
     inkscape:zoom="1"
     inkscape:cx="542.91537"
     inkscape:cy="278.45072"
     inkscape:window-x="1680"
     inkscape:window-y="0"
     inkscape:window-maximized="1"
     inkscape:current-layer="svg2"
     inkscape:object-nodes="true"
     inkscape:object-paths="true"
     showguides="true"
     inkscape:guide-bbox="true" />
  <metadata
     id="metadata2975">image/svg+xmlen<rdf:RDF>
  <cc:Work
     rdf:about="">
    <dc:format>image/svg+xml</dc:format>
    <dc:type
       rdf:resource="http://purl.org/dc/dcmitype/StillImage" />
    <dc:title />
  </cc:Work>
</rdf:RDF>
</metadata>
  <path
     sodipodi:type="inkscape:offset"
     inkscape:radius="20"
     inkscape:original="M 187.75 233.03125 L 177.5 312.5625 L 170.90625 363.5 L 163.78125 418.6875 L 152.78125 504.0625 L 106.09375 504.0625 L 106.09375 529.0625 L 241.1875 529.0625 C 246.66606 547.06781 263.46753 560.28125 283.1875 560.28125 C 302.90748 560.28125 319.70894 547.06781 325.1875 529.0625 L 460.28125 529.0625 L 460.28125 504.0625 L 412.875 504.0625 L 401.875 418.6875 L 390.90625 333.75 L 388.15625 312.5625 L 377.90625 233.03125 L 338.1875 233.03125 L 187.75 233.03125 z M 263.5625 529.0625 L 302.8125 529.0625 C 298.68474 535.48827 291.48763 539.71875 283.1875 539.71875 C 274.88738 539.71875 267.69027 535.48827 263.5625 529.0625 z "
     style="opacity:0.42608696;color:#000000;fill:#8d8d8d;fill-opacity:1;fill-rule:nonzero;stroke:#a35151;stroke-width:0;stroke-linecap:round;stroke-linejoin:miter;stroke-miterlimit:4;stroke-opacity:1;stroke-dasharray:none;stroke-dashoffset:0;marker:none;visibility:visible;display:inline;overflow:visible;enable-background:accumulate"
     id="path3108"
     d="m 187.75,213.03125 a 20.002,20.002 0 0 0 -19.84375,17.4375 l -10.25,79.53125 -6.59375,50.9375 -7.125,55.1875 -8.75,67.9375 -29.09375,0 a 20.002,20.002 0 0 0 -20,20 l 0,25 a 20.002,20.002 0 0 0 20,20 l 122.46875,0 c 11.21388,18.64574 31.48257,31.21875 54.625,31.21875 23.14243,0 43.41112,-12.57301 54.625,-31.21875 l 122.46875,0 a 20.002,20.002 0 0 0 20,-20 l 0,-25 a 20.002,20.002 0 0 0 -20,-20 l -29.8125,0 -8.75,-67.9375 L 410.75,331.1875 408,310 397.75,230.46875 a 20.002,20.002 0 0 0 -19.84375,-17.4375 l -39.71875,0 -150.4375,0 z" />
  <path
     style="color:#000000;fill:#000000;fill-opacity:1;fill-rule:nonzero;stroke:#a35151;stroke-width:0;stroke-linecap:round;stroke-linejoin:miter;stroke-miterlimit:4;stroke-opacity:1;stroke-dasharray:none;stroke-dashoffset:0;marker:none;visibility:visible;display:inline;overflow:visible;enable-background:accumulate"
     d="m 187.75,233.03125 -36.25,280.9375 262.65625,0 -36.25,-280.9375 z"
     id="rect3122"
     inkscape:connector-curvature="0"
     sodipodi:nodetypes="ccccc" />
  <path
     style="fill:none;stroke:#000000;stroke-width:25;stroke-linecap:butt;stroke-linejoin:miter;stroke-miterlimit:4;stroke-opacity:1;stroke-dasharray:none"
     d="m 106.0882,516.57012 354.21851,0"
     id="path3759"
     inkscape:connector-curvature="0"
     sodipodi:nodetypes="cc" />
  <path
     sodipodi:type="arc"
     style="color:#000000;fill:#fefefe;fill-opacity:1;stroke:#000000;stroke-width:25;stroke-linecap:round;stroke-linejoin:round;stroke-miterlimit:10;stroke-opacity:1;stroke-dasharray:none;stroke-dashoffset:0;marker:none;visibility:visible;display:inline;overflow:visible;enable-background:accumulate"
     id="path3759-1"
     sodipodi:cx="210.27438"
     sodipodi:cy="76.036606"
     sodipodi:rx="40.838413"
     sodipodi:ry="40.838413"
     d="m 251.1128,76.036606 a 40.838413,40.838413 0 1 1 -81.67683,0 40.838413,40.838413 0 1 1 81.67683,0 z"
     transform="matrix(0.82289092,0,0,0.82289092,110.16458,453.8318)" />
  <path
     style="color:#000000;fill:#ffd400;fill-opacity:1;fill-rule:nonzero;stroke:#a35151;stroke-width:0;stroke-linecap:round;stroke-linejoin:miter;stroke-miterlimit:4;stroke-opacity:1;stroke-dasharray:none;stroke-dashoffset:0;marker:none;visibility:visible;display:inline;overflow:visible;enable-background:accumulate"
     d="m 177.5,312.55465 -13.71875,106.12673 238.09375,0 -13.71875,-106.12673 -210.65625,0 z"
     id="rect3122-0"
     inkscape:connector-curvature="0" />
  <path
     style="opacity:0.42608696;color:#000000;fill:#000000;fill-opacity:1;fill-rule:nonzero;stroke:#a35151;stroke-width:0;stroke-linecap:round;stroke-linejoin:miter;stroke-miterlimit:4;stroke-opacity:1;stroke-dashoffset:0;marker:none;visibility:visible;display:inline;overflow:visible;enable-background:accumulate"
     d="m 338.201,233.03125 39.70525,0 35.24019,273.11151 -56.42936,7.82599 z"
     id="rect3050"
     inkscape:connector-curvature="0"
     sodipodi:nodetypes="ccccc" />
</svg>

<svg width="580" height="580" viewBox="0 0 580 580" fill="none" xmlns="http://www.w3.org/2000/svg">
<g clip-path="url(#clip0)">
<path opacity="0.426087" d="M187.75 213.031C182.888 213.03 178.192 214.799 174.54 218.008C170.888 221.217 168.53 225.647 167.906 230.469L157.656 310L151.062 360.938L143.938 416.125L135.188 484.062H106.094C100.79 484.063 95.7028 486.17 91.9522 489.921C88.2016 493.672 86.0943 498.758 86.0938 504.062V529.062C86.0943 534.367 88.2016 539.453 91.9522 543.204C95.7028 546.955 100.79 549.062 106.094 549.062H228.562C239.776 567.708 260.045 580.281 283.188 580.281C306.33 580.281 326.599 567.708 337.812 549.062H460.281C465.585 549.062 470.672 546.955 474.423 543.204C478.173 539.453 480.281 534.367 480.281 529.062V504.062C480.281 498.758 478.173 493.672 474.423 489.921C470.672 486.17 465.585 484.063 460.281 484.062H430.469L421.719 416.125L410.75 331.188L408 310L397.75 230.469C397.127 225.647 394.768 221.217 391.116 218.008C387.464 214.799 382.768 213.03 377.906 213.031H338.188H187.75Z" fill="#8D8D8D"/>
<path d="M187.75 233.031L151.5 513.969H414.156L377.906 233.031H187.75Z" fill="black"/>
<path d="M106.088 516.57H460.307" stroke="black" stroke-width="25"/>
<path d="M316.803 516.402C316.803 525.314 313.262 533.862 306.96 540.164C300.658 546.467 292.11 550.007 283.197 550.007C274.285 550.007 265.737 546.467 259.435 540.164C253.132 533.862 249.592 525.314 249.592 516.402C249.592 507.489 253.132 498.941 259.435 492.639C265.737 486.337 274.285 482.796 283.197 482.796C292.11 482.796 300.658 486.337 306.96 492.639C313.262 498.941 316.803 507.489 316.803 516.402V516.402Z" fill="#FEFEFE" stroke="black" stroke-width="20.5723" stroke-miterlimit="10" stroke-linecap="round" stroke-linejoin="round"/>
<path d="M177.5 312.555L163.781 418.681H401.875L388.156 312.555H177.5Z" fill="#FFD400"/>
<path opacity="0.426087" d="M338.201 233.031H377.906L413.146 506.143L356.717 513.969L338.201 233.031Z" fill="black"/>
</g>
<defs>
<clipPath id="clip0">
<path d="M0 0H580V580H0V0Z" fill="white"/>
</clipPath>
</defs>
</svg>
